packages/assets/static/images/icons/cow.svg

<svg width="24" height="24" viewBox="0 0 24 24" xmlns="http://www.w3.org/2000/svg">
<path d="M9.74913 18.375C9.74913 18.5739 9.67011 18.7647 9.52946 18.9053C9.38881 19.046 9.19804 19.125 8.99913 19.125H7.49913C7.30022 19.125 7.10945 19.046 6.9688 18.9053C6.82815 18.7647 6.74913 18.5739 6.74913 18.375C6.74913 18.1761 6.82815 17.9853 6.9688 17.8447C7.10945 17.704 7.30022 17.625 7.49913 17.625H8.99913C9.19804 17.625 9.38881 17.704 9.52946 17.8447C9.67011 17.9853 9.74913 18.1761 9.74913 18.375ZM16.4991 17.625H14.9991C14.8002 17.625 14.6094 17.704 14.4688 17.8447C14.3281 17.9853 14.2491 18.1761 14.2491 18.375C14.2491 18.5739 14.3281 18.7647 14.4688 18.9053C14.6094 19.046 14.8002 19.125 14.9991 19.125H16.4991C16.698 19.125 16.8888 19.046 17.0295 18.9053C17.1701 18.7647 17.2491 18.5739 17.2491 18.375C17.2491 18.1761 17.1701 17.9853 17.0295 17.8447C16.8888 17.704 16.698 17.625 16.4991 17.625ZM9.37413 13.125C9.59663 13.125 9.81414 13.059 9.99914 12.9354C10.1841 12.8118 10.3283 12.6361 10.4135 12.4305C10.4986 12.225 10.5209 11.9988 10.4775 11.7805C10.4341 11.5623 10.327 11.3618 10.1696 11.2045C10.0123 11.0472 9.81183 10.94 9.59361 10.8966C9.37538 10.8532 9.14918 10.8755 8.94361 10.9606C8.73804 11.0458 8.56234 11.19 8.43872 11.375C8.31511 11.56 8.24913 11.7775 8.24913 12C8.24913 12.2984 8.36765 12.5845 8.57863 12.7955C8.78961 13.0065 9.07576 13.125 9.37413 13.125ZM14.6241 13.125C14.8466 13.125 15.0641 13.059 15.2491 12.9354C15.4341 12.8118 15.5783 12.6361 15.6635 12.4305C15.7486 12.225 15.7709 11.9988 15.7275 11.7805C15.6841 11.5623 15.577 11.3618 15.4196 11.2045C15.2623 11.0472 15.0618 10.94 14.8436 10.8966C14.6254 10.8532 14.3992 10.8755 14.1936 10.9606C13.988 11.0458 13.8123 11.19 13.6887 11.375C13.5651 11.56 13.4991 11.7775 13.4991 12C13.4991 12.2984 13.6177 12.5845 13.8286 12.7955C14.0396 13.0065 14.3258 13.125 14.6241 13.125ZM22.9107 11.8238C22.77 11.996 22.5929 12.1348 22.392 12.2301C22.1911 12.3255 21.9715 12.375 21.7491 12.375H18.7491V15.375C19.3788 15.8472 19.8439 16.5056 20.0786 17.2569C20.3132 18.0081 20.3056 18.8142 20.0567 19.5609C19.8078 20.3075 19.3303 20.957 18.6918 21.4172C18.0533 21.8774 17.2862 22.125 16.4991 22.125H7.49913C6.71207 22.125 5.94496 21.8774 5.30646 21.4172C4.66797 20.957 4.19046 20.3075 3.94157 19.5609C3.69268 18.8142 3.68503 18.0081 3.9197 17.2569C4.15438 16.5056 4.61948 15.8472 5.24913 15.375V12.375H2.24913C2.02852 12.3746 1.8107 12.3256 1.61121 12.2314C1.41171 12.1373 1.23545 12.0002 1.09498 11.8301C0.954503 11.66 0.853282 11.461 0.798525 11.2473C0.743769 11.0336 0.736826 10.8104 0.77819 10.5938C1.01867 9.40504 1.66237 8.33588 2.60041 7.56715C3.53844 6.79841 4.71321 6.37728 5.926 6.375H6.07975C5.57925 5.88713 5.18154 5.30397 4.91006 4.65991C4.63859 4.01585 4.49887 3.32394 4.49913 2.625C4.49913 2.42609 4.57815 2.23532 4.7188 2.09467C4.85945 1.95402 5.05022 1.875 5.24913 1.875C5.44804 1.875 5.63881 1.95402 5.77946 2.09467C5.92011 2.23532 5.99913 2.42609 5.99913 2.625C5.99913 3.61956 6.39422 4.57339 7.09748 5.27665C7.80074 5.97991 8.75457 6.375 9.74913 6.375H14.2491C14.7416 6.375 15.2292 6.278 15.6842 6.08955C16.1392 5.90109 16.5526 5.62487 16.9008 5.27665C17.249 4.92843 17.5252 4.51503 17.7137 4.06006C17.9021 3.60509 17.9991 3.11746 17.9991 2.625C17.9991 2.42609 18.0781 2.23532 18.2188 2.09467C18.3594 1.95402 18.5502 1.875 18.7491 1.875C18.948 1.875 19.1388 1.95402 19.2795 2.09467C19.4201 2.23532 19.4991 2.42609 19.4991 2.625C19.4994 3.32394 19.3597 4.01585 19.0882 4.65991C18.8167 5.30397 18.419 5.88713 17.9185 6.375H18.0723C19.285 6.37728 20.4598 6.79841 21.3978 7.56715C22.3359 8.33588 22.9796 9.40504 23.2201 10.5938C23.2626 10.8089 23.257 11.0308 23.2035 11.2435C23.15 11.4562 23.05 11.6544 22.9107 11.8238ZM6.74913 14.7C6.99603 14.6502 7.24726 14.6251 7.49913 14.625H16.4991C16.751 14.6251 17.0022 14.6502 17.2491 14.7V10.125C17.2491 9.52826 17.0121 8.95597 16.5901 8.53401C16.1682 8.11205 15.5959 7.875 14.9991 7.875H8.99913C8.40239 7.875 7.83009 8.11205 7.40814 8.53401C6.98618 8.95597 6.74913 9.52826 6.74913 10.125V14.7ZM5.24913 10.875V10.125C5.24784 9.3134 5.51114 8.5235 5.99913 7.875H5.92413C5.06006 7.87641 4.22286 8.1755 3.5535 8.72192C2.88414 9.26834 2.42349 10.0287 2.24913 10.875H5.24913ZM18.7491 18.375C18.7491 17.7783 18.5121 17.206 18.0901 16.784C17.6682 16.3621 17.0959 16.125 16.4991 16.125H7.49913C6.90239 16.125 6.33009 16.3621 5.90814 16.784C5.48618 17.206 5.24913 17.7783 5.24913 18.375C5.24913 18.9717 5.48618 19.544 5.90814 19.966C6.33009 20.3879 6.90239 20.625 7.49913 20.625H16.4991C17.0959 20.625 17.6682 20.3879 18.0901 19.966C18.5121 19.544 18.7491 18.9717 18.7491 18.375ZM21.7491 10.875C21.5749 10.0286 21.1143 9.26815 20.4449 8.72171C19.7755 8.17526 18.9382 7.87623 18.0741 7.875H17.9991C18.4871 8.5235 18.7504 9.3134 18.7491 10.125V10.875H21.7491Z"/>
</svg>

<svg viewBox="0 0 24 24" xmlns="http://www.w3.org/2000/svg" aria-hidden="true" fill="currentColor"><path d="M9.75 18.375a.75.75 0 0 1-.75.75H7.5a.75.75 0 1 1 0-1.5H9a.75.75 0 0 1 .75.75m6.75-.75H15a.75.75 0 1 0 0 1.5h1.5a.75.75 0 1 0 0-1.5m-7.126-4.5a1.125 1.125 0 1 0 0-2.25 1.125 1.125 0 0 0 0 2.25m5.25 0a1.125 1.125 0 1 0 0-2.25 1.125 1.125 0 0 0 0 2.25m8.287-1.301a1.5 1.5 0 0 1-1.162.551h-3v3a3.75 3.75 0 0 1-2.25 6.75h-9a3.75 3.75 0 0 1-2.25-6.75v-3h-3a1.5 1.5 0 0 1-1.47-1.781 5.26 5.26 0 0 1 5.147-4.219h.154a5.23 5.23 0 0 1-1.58-3.75.75.75 0 0 1 1.5 0 3.75 3.75 0 0 0 3.75 3.75h4.5A3.75 3.75 0 0 0 18 2.625a.75.75 0 1 1 1.5 0 5.23 5.23 0 0 1-1.581 3.75h.153a5.26 5.26 0 0 1 5.148 4.219 1.48 1.48 0 0 1-.31 1.23M6.749 14.7a4 4 0 0 1 .75-.075h9a4 4 0 0 1 .75.075v-4.575A2.25 2.25 0 0 0 15 7.875H9a2.25 2.25 0 0 0-2.25 2.25zm-1.5-3.825v-.75A3.73 3.73 0 0 1 6 7.875h-.075a3.76 3.76 0 0 0-3.675 3zm13.5 7.5a2.25 2.25 0 0 0-2.25-2.25h-9a2.25 2.25 0 0 0 0 4.5h9a2.25 2.25 0 0 0 2.25-2.25m3-7.5a3.76 3.76 0 0 0-3.675-3H18c.488.649.751 1.438.75 2.25v.75z"/></svg>
